images/11949157.svg

<?xml version="1.0" encoding="UTF-8"?>
<svg xmlns="http://www.w3.org/2000/svg" xmlns:xlink="http://www.w3.org/1999/xlink" width="300pt" height="300pt" viewBox="0 0 300 300" version="1.1">
<defs>
<g>
<symbol overflow="visible" id="glyph0-0">
<path style="stroke:none;" d="M 0.59375 2.125 L 0.59375 -8.46875 L 6.59375 -8.46875 L 6.59375 2.125 Z M 1.265625 1.453125 L 5.9375 1.453125 L 5.9375 -7.78125 L 1.265625 -7.78125 Z M 1.265625 1.453125 "/>
</symbol>
<symbol overflow="visible" id="glyph0-1">
<path style="stroke:none;" d="M 4.734375 -7.953125 C 3.867188 -7.953125 3.179688 -7.628906 2.671875 -6.984375 C 2.171875 -6.347656 1.921875 -5.472656 1.921875 -4.359375 C 1.921875 -3.265625 2.171875 -2.394531 2.671875 -1.75 C 3.179688 -1.113281 3.867188 -0.796875 4.734375 -0.796875 C 5.585938 -0.796875 6.265625 -1.113281 6.765625 -1.75 C 7.273438 -2.394531 7.53125 -3.265625 7.53125 -4.359375 C 7.53125 -5.472656 7.273438 -6.347656 6.765625 -6.984375 C 6.265625 -7.628906 5.585938 -7.953125 4.734375 -7.953125 Z M 4.734375 -8.90625 C 5.953125 -8.90625 6.925781 -8.492188 7.65625 -7.671875 C 8.394531 -6.847656 8.765625 -5.742188 8.765625 -4.359375 C 8.765625 -2.984375 8.394531 -1.882812 7.65625 -1.0625 C 6.925781 -0.238281 5.953125 0.171875 4.734375 0.171875 C 3.503906 0.171875 2.519531 -0.238281 1.78125 -1.0625 C 1.039062 -1.882812 0.671875 -2.984375 0.671875 -4.359375 C 0.671875 -5.742188 1.039062 -6.847656 1.78125 -7.671875 C 2.519531 -8.492188 3.503906 -8.90625 4.734375 -8.90625 Z M 4.734375 -8.90625 "/>
</symbol>
<symbol overflow="visible" id="glyph0-2">
<path style="stroke:none;" d="M 1.171875 -8.75 L 2.359375 -8.75 L 2.359375 -5.15625 L 6.65625 -5.15625 L 6.65625 -8.75 L 7.84375 -8.75 L 7.84375 0 L 6.65625 0 L 6.65625 -4.171875 L 2.359375 -4.171875 L 2.359375 0 L 1.171875 0 Z M 1.171875 -8.75 "/>
</symbol>
</g>
</defs>
<g id="surface30501">
<rect x="0" y="0" width="300" height="300" style="fill:rgb(100%,100%,100%);fill-opacity:1;stroke:none;"/>
<path style="fill:none;stroke-width:1.2;stroke-linecap:butt;stroke-linejoin:miter;stroke:rgb(0%,0%,0%);stroke-opacity:1;stroke-miterlimit:10;" d="M 263.324219 216.269531 L 248.175781 188.378906 "/>
<path style="fill:none;stroke-width:1.2;stroke-linecap:butt;stroke-linejoin:miter;stroke:rgb(0%,0%,0%);stroke-opacity:1;stroke-miterlimit:10;" d="M 248.175781 188.378906 L 216.445312 187.558594 "/>
<path style="fill:none;stroke-width:1.2;stroke-linecap:butt;stroke-linejoin:miter;stroke:rgb(0%,0%,0%);stroke-opacity:1;stroke-miterlimit:10;" d="M 245.195312 180.832031 L 219.8125 180.175781 "/>
<path style="fill:none;stroke-width:1.2;stroke-linecap:butt;stroke-linejoin:miter;stroke:rgb(0%,0%,0%);stroke-opacity:1;stroke-miterlimit:10;" d="M 264.75 161.316406 L 248.175781 188.378906 "/>
<path style="fill:none;stroke-width:1.2;stroke-linecap:butt;stroke-linejoin:miter;stroke:rgb(0%,0%,0%);stroke-opacity:1;stroke-miterlimit:10;" d="M 216.445312 187.558594 L 201.292969 159.667969 "/>
<path style="fill:none;stroke-width:1.2;stroke-linecap:butt;stroke-linejoin:miter;stroke:rgb(0%,0%,0%);stroke-opacity:1;stroke-miterlimit:10;" d="M 201.292969 159.667969 L 217.871094 132.605469 "/>
<path style="fill:none;stroke-width:1.2;stroke-linecap:butt;stroke-linejoin:miter;stroke:rgb(0%,0%,0%);stroke-opacity:1;stroke-miterlimit:10;" d="M 196.582031 153.0625 L 209.84375 131.410156 "/>
<path style="fill:none;stroke-width:1.2;stroke-linecap:butt;stroke-linejoin:miter;stroke:rgb(0%,0%,0%);stroke-opacity:1;stroke-miterlimit:10;" d="M 169.566406 158.847656 L 201.292969 159.667969 "/>
<path style="fill:none;stroke-width:1.2;stroke-linecap:butt;stroke-linejoin:miter;stroke:rgb(0%,0%,0%);stroke-opacity:1;stroke-miterlimit:10;" d="M 217.871094 132.605469 L 249.597656 133.425781 "/>
<path style="fill:none;stroke-width:1.2;stroke-linecap:butt;stroke-linejoin:miter;stroke:rgb(0%,0%,0%);stroke-opacity:1;stroke-miterlimit:10;" d="M 217.871094 132.605469 L 210.292969 118.660156 "/>
<path style="fill:none;stroke-width:1.2;stroke-linecap:butt;stroke-linejoin:miter;stroke:rgb(100%,0%,0%);stroke-opacity:1;stroke-miterlimit:10;" d="M 210.292969 118.660156 L 202.71875 104.714844 "/>
<path style="fill:none;stroke-width:1.2;stroke-linecap:butt;stroke-linejoin:miter;stroke:rgb(0%,0%,0%);stroke-opacity:1;stroke-miterlimit:10;" d="M 249.597656 133.425781 L 264.75 161.316406 "/>
<path style="fill:none;stroke-width:1.2;stroke-linecap:butt;stroke-linejoin:miter;stroke:rgb(0%,0%,0%);stroke-opacity:1;stroke-miterlimit:10;" d="M 244.550781 139.78125 L 256.671875 162.089844 "/>
<path style="fill:none;stroke-width:1.2;stroke-linecap:butt;stroke-linejoin:miter;stroke:rgb(100%,0%,0%);stroke-opacity:1;stroke-miterlimit:10;" d="M 202.71875 104.714844 L 186.855469 104.304688 "/>
<path style="fill:none;stroke-width:1.2;stroke-linecap:butt;stroke-linejoin:miter;stroke:rgb(0%,0%,0%);stroke-opacity:1;stroke-miterlimit:10;" d="M 186.855469 104.304688 L 170.988281 103.894531 "/>
<path style=" stroke:none;fill-rule:nonzero;fill:rgb(100%,100%,100%);fill-opacity:1;" d="M 197.71875 97.714844 L 207.71875 97.714844 L 207.71875 111.714844 L 197.71875 111.714844 Z M 197.71875 97.714844 "/>
<g style="fill:rgb(100%,0%,0%);fill-opacity:1;">
  <use xlink:href="#glyph0-1" x="197.71875" y="108.853516"/>
</g>
<path style="fill:none;stroke-width:1.2;stroke-linecap:butt;stroke-linejoin:miter;stroke:rgb(0%,0%,0%);stroke-opacity:1;stroke-miterlimit:10;" d="M 174.269531 102.109375 L 166.695312 88.167969 "/>
<path style="fill:none;stroke-width:1.2;stroke-linecap:butt;stroke-linejoin:miter;stroke:rgb(100%,0%,0%);stroke-opacity:1;stroke-miterlimit:10;" d="M 166.695312 88.167969 L 159.121094 74.222656 "/>
<path style="fill:none;stroke-width:1.2;stroke-linecap:butt;stroke-linejoin:miter;stroke:rgb(0%,0%,0%);stroke-opacity:1;stroke-miterlimit:10;" d="M 167.710938 105.675781 L 160.132812 91.730469 "/>
<path style="fill:none;stroke-width:1.2;stroke-linecap:butt;stroke-linejoin:miter;stroke:rgb(100%,0%,0%);stroke-opacity:1;stroke-miterlimit:10;" d="M 160.132812 91.730469 L 152.558594 77.789062 "/>
<path style="fill:none;stroke-width:1.2;stroke-linecap:butt;stroke-linejoin:miter;stroke:rgb(0%,0%,0%);stroke-opacity:1;stroke-miterlimit:10;" d="M 170.988281 103.894531 L 154.414062 130.960938 "/>
<path style=" stroke:none;fill-rule:nonzero;fill:rgb(100%,100%,100%);fill-opacity:1;" d="M 145.839844 69.003906 L 155.839844 69.003906 L 155.839844 83.003906 L 145.839844 83.003906 Z M 145.839844 69.003906 "/>
<g style="fill:rgb(100%,0%,0%);fill-opacity:1;">
  <use xlink:href="#glyph0-1" x="145.839844" y="80.142578"/>
</g>
<path style="fill:none;stroke-width:1.2;stroke-linecap:butt;stroke-linejoin:miter;stroke:rgb(0%,0%,0%);stroke-opacity:1;stroke-miterlimit:10;" d="M 154.414062 130.960938 L 169.566406 158.847656 "/>
<path style="fill:none;stroke-width:1.2;stroke-linecap:butt;stroke-linejoin:miter;stroke:rgb(0%,0%,0%);stroke-opacity:1;stroke-miterlimit:10;" d="M 149.367188 137.3125 L 161.488281 159.625 "/>
<path style="fill:none;stroke-width:1.2;stroke-linecap:butt;stroke-linejoin:miter;stroke:rgb(0%,0%,0%);stroke-opacity:1;stroke-miterlimit:10;" d="M 123.207031 136.75 L 154.414062 130.960938 "/>
<path style="fill:none;stroke-width:1.2;stroke-linecap:butt;stroke-linejoin:miter;stroke:rgb(0%,0%,0%);stroke-opacity:1;stroke-miterlimit:10;" d="M 169.566406 158.847656 L 158.644531 170.363281 "/>
<path style="fill:none;stroke-width:1.2;stroke-linecap:butt;stroke-linejoin:miter;stroke:rgb(100%,0%,0%);stroke-opacity:1;stroke-miterlimit:10;" d="M 158.644531 170.363281 L 147.726562 181.875 "/>
<path style="fill:none;stroke-width:1.2;stroke-linecap:butt;stroke-linejoin:miter;stroke:rgb(100%,0%,0%);stroke-opacity:1;stroke-miterlimit:10;" d="M 147.726562 181.875 L 133.398438 175.046875 "/>
<path style="fill:none;stroke-width:1.2;stroke-linecap:butt;stroke-linejoin:miter;stroke:rgb(0%,0%,0%);stroke-opacity:1;stroke-miterlimit:10;" d="M 133.398438 175.046875 L 119.074219 168.21875 "/>
<path style=" stroke:none;fill-rule:nonzero;fill:rgb(100%,100%,100%);fill-opacity:1;" d="M 142.726562 174.875 L 152.726562 174.875 L 152.726562 188.875 L 142.726562 188.875 Z M 142.726562 174.875 "/>
<g style="fill:rgb(100%,0%,0%);fill-opacity:1;">
  <use xlink:href="#glyph0-1" x="142.726562" y="186.013672"/>
</g>
<path style="fill:none;stroke-width:1.2;stroke-linecap:butt;stroke-linejoin:miter;stroke:rgb(0%,0%,0%);stroke-opacity:1;stroke-miterlimit:10;" d="M 119.074219 168.21875 L 89.753906 180.375 "/>
<path style="fill:none;stroke-width:1.2;stroke-linecap:butt;stroke-linejoin:miter;stroke:rgb(0%,0%,0%);stroke-opacity:1;stroke-miterlimit:10;" d="M 113.28125 162.535156 L 89.828125 172.257812 "/>
<path style="fill:none;stroke-width:1.2;stroke-linecap:butt;stroke-linejoin:miter;stroke:rgb(0%,0%,0%);stroke-opacity:1;stroke-miterlimit:10;" d="M 123.207031 136.75 L 119.074219 168.21875 "/>
<path style="fill:none;stroke-width:1.2;stroke-linecap:butt;stroke-linejoin:miter;stroke:rgb(0%,0%,0%);stroke-opacity:1;stroke-miterlimit:10;" d="M 89.753906 180.375 L 64.570312 161.058594 "/>
<path style="fill:none;stroke-width:1.2;stroke-linecap:butt;stroke-linejoin:miter;stroke:rgb(0%,0%,0%);stroke-opacity:1;stroke-miterlimit:10;" d="M 89.753906 180.375 L 87.6875 196.109375 "/>
<path style="fill:none;stroke-width:1.2;stroke-linecap:butt;stroke-linejoin:miter;stroke:rgb(100%,0%,0%);stroke-opacity:1;stroke-miterlimit:10;" d="M 87.6875 196.109375 L 85.621094 211.839844 "/>
<path style="fill:none;stroke-width:1.2;stroke-linecap:butt;stroke-linejoin:miter;stroke:rgb(0%,0%,0%);stroke-opacity:1;stroke-miterlimit:10;" d="M 64.570312 161.058594 L 68.703125 129.589844 "/>
<path style="fill:none;stroke-width:1.2;stroke-linecap:butt;stroke-linejoin:miter;stroke:rgb(0%,0%,0%);stroke-opacity:1;stroke-miterlimit:10;" d="M 72.386719 158.886719 L 75.695312 133.710938 "/>
<path style="fill:none;stroke-width:1.2;stroke-linecap:butt;stroke-linejoin:miter;stroke:rgb(0%,0%,0%);stroke-opacity:1;stroke-miterlimit:10;" d="M 64.570312 161.058594 L 49.910156 167.136719 "/>
<path style="fill:none;stroke-width:1.2;stroke-linecap:butt;stroke-linejoin:miter;stroke:rgb(100%,0%,0%);stroke-opacity:1;stroke-miterlimit:10;" d="M 49.910156 167.136719 L 35.25 173.210938 "/>
<path style="fill:none;stroke-width:1.2;stroke-linecap:butt;stroke-linejoin:miter;stroke:rgb(0%,0%,0%);stroke-opacity:1;stroke-miterlimit:10;" d="M 68.703125 129.589844 L 98.023438 117.4375 "/>
<path style="fill:none;stroke-width:1.2;stroke-linecap:butt;stroke-linejoin:miter;stroke:rgb(0%,0%,0%);stroke-opacity:1;stroke-miterlimit:10;" d="M 68.703125 129.589844 L 56.109375 119.933594 "/>
<path style="fill:none;stroke-width:1.2;stroke-linecap:butt;stroke-linejoin:miter;stroke:rgb(100%,0%,0%);stroke-opacity:1;stroke-miterlimit:10;" d="M 56.109375 119.933594 L 43.519531 110.277344 "/>
<path style="fill:none;stroke-width:1.2;stroke-linecap:butt;stroke-linejoin:miter;stroke:rgb(0%,0%,0%);stroke-opacity:1;stroke-miterlimit:10;" d="M 98.023438 117.4375 L 123.207031 136.75 "/>
<path style="fill:none;stroke-width:1.2;stroke-linecap:butt;stroke-linejoin:miter;stroke:rgb(0%,0%,0%);stroke-opacity:1;stroke-miterlimit:10;" d="M 95.996094 125.292969 L 116.144531 140.746094 "/>
<path style=" stroke:none;fill-rule:nonzero;fill:rgb(100%,100%,100%);fill-opacity:1;" d="M 24.519531 103.277344 L 43.519531 103.277344 L 43.519531 117.277344 L 24.519531 117.277344 Z M 24.519531 103.277344 "/>
<g style="fill:rgb(100%,0%,0%);fill-opacity:1;">
  <use xlink:href="#glyph0-2" x="24.519531" y="114.416016"/>
  <use xlink:href="#glyph0-1" x="33.542969" y="114.416016"/>
</g>
<path style=" stroke:none;fill-rule:nonzero;fill:rgb(100%,100%,100%);fill-opacity:1;" d="M 16.25 166.210938 L 35.25 166.210938 L 35.25 180.210938 L 16.25 180.210938 Z M 16.25 166.210938 "/>
<g style="fill:rgb(100%,0%,0%);fill-opacity:1;">
  <use xlink:href="#glyph0-2" x="16.25" y="177.349609"/>
  <use xlink:href="#glyph0-1" x="25.273438" y="177.349609"/>
</g>
<path style="fill:none;stroke-width:1.2;stroke-linecap:butt;stroke-linejoin:miter;stroke:rgb(100%,0%,0%);stroke-opacity:1;stroke-miterlimit:10;" d="M 85.621094 211.839844 L 70.960938 217.917969 "/>
<path style="fill:none;stroke-width:1.2;stroke-linecap:butt;stroke-linejoin:miter;stroke:rgb(0%,0%,0%);stroke-opacity:1;stroke-miterlimit:10;" d="M 70.960938 217.917969 L 56.300781 223.996094 "/>
<path style=" stroke:none;fill-rule:nonzero;fill:rgb(100%,100%,100%);fill-opacity:1;" d="M 80.621094 204.839844 L 90.621094 204.839844 L 90.621094 218.839844 L 80.621094 218.839844 Z M 80.621094 204.839844 "/>
<g style="fill:rgb(100%,0%,0%);fill-opacity:1;">
  <use xlink:href="#glyph0-1" x="80.621094" y="215.978516"/>
</g>
</g>
</svg>

<svg xmlns="http://www.w3.org/2000/svg" xmlns:xlink="http://www.w3.org/1999/xlink" width="300pt" height="300pt" viewBox="0 0 300 300"><defs><symbol overflow="visible"><path d="M.594 2.125V-8.47h6V2.126zm.672-.672h4.671V-7.78h-4.67zm0 0"/></symbol><symbol overflow="visible" id="a"><path d="M4.734-7.953c-.867 0-1.554.324-2.062.97-.5.635-.75 1.51-.75 2.624 0 1.094.25 1.965.75 2.61.508.637 1.195.953 2.062.953.852 0 1.532-.316 2.032-.953.507-.645.765-1.516.765-2.61 0-1.113-.257-1.988-.764-2.624-.5-.645-1.18-.97-2.032-.97zm0-.953c1.22 0 2.192.414 2.922 1.234.74.824 1.11 1.93 1.11 3.313 0 1.376-.37 2.477-1.11 3.298C6.926-.24 5.953.17 4.734.17c-1.23 0-2.214-.41-2.953-1.234C1.04-1.882.673-2.984.673-4.36c0-1.382.367-2.488 1.11-3.312.738-.82 1.722-1.234 2.952-1.234zm0 0"/></symbol><symbol overflow="visible" id="b"><path d="M1.172-8.75H2.36v3.594h4.296V-8.75h1.188V0H6.656v-4.172H2.36V0H1.17zm0 0"/></symbol></defs><g><path fill="#fff" d="M0 0h300v300H0z"/><path d="M263.324 216.27l-15.148-27.89M248.176 188.38l-31.73-.82M245.195 180.832l-25.382-.656M264.75 161.316l-16.574 27.063M216.445 187.56l-15.152-27.892M201.293 159.668l16.578-27.063M196.582 153.063l13.262-21.653M169.566 158.848l31.727.82M217.87 132.605l31.728.82M217.87 132.605l-7.577-13.945" stroke-width="1.2" stroke="#000" stroke-miterlimit="10" fill="none"/><path d="M210.293 118.66l-7.574-13.945" stroke-width="1.2" stroke="#f00" stroke-miterlimit="10" fill="none"/><path d="M249.598 133.426l15.152 27.89M244.55 139.78l12.122 22.31" stroke-width="1.2" stroke="#000" stroke-miterlimit="10" fill="none"/><path d="M202.72 104.715l-15.865-.41" stroke-width="1.2" stroke="#f00" stroke-miterlimit="10" fill="none"/><path d="M186.855 104.305l-15.867-.41" stroke-width="1.2" stroke="#000" stroke-miterlimit="10" fill="none"/><path d="M197.72 97.715h10v14h-10zm0 0" fill="#fff"/><use xlink:href="#a" x="197.719" y="108.854" fill="#f00"/><path d="M174.27 102.11l-7.575-13.942" stroke-width="1.2" stroke="#000" stroke-miterlimit="10" fill="none"/><path d="M166.695 88.168l-7.574-13.945" stroke-width="1.2" stroke="#f00" stroke-miterlimit="10" fill="none"/><path d="M167.71 105.676l-7.577-13.946" stroke-width="1.2" stroke="#000" stroke-miterlimit="10" fill="none"/><path d="M160.133 91.73l-7.574-13.94" stroke-width="1.2" stroke="#f00" stroke-miterlimit="10" fill="none"/><path d="M170.988 103.895l-16.574 27.066" stroke-width="1.2" stroke="#000" stroke-miterlimit="10" fill="none"/><path d="M145.84 69.004h10v14h-10zm0 0" fill="#fff"/><use xlink:href="#a" x="145.84" y="80.143" fill="#f00"/><path d="M154.414 130.96l15.152 27.888M149.367 137.313l12.12 22.312M123.207 136.75l31.207-5.79M169.566 158.848l-10.92 11.515" stroke-width="1.2" stroke="#000" stroke-miterlimit="10" fill="none"/><path d="M158.645 170.363l-10.918 11.512M147.727 181.875l-14.33-6.828" stroke-width="1.2" stroke="#f00" stroke-miterlimit="10" fill="none"/><path d="M133.398 175.047l-14.324-6.828" stroke-width="1.2" stroke="#000" stroke-miterlimit="10" fill="none"/><path d="M142.727 174.875h10v14h-10zm0 0" fill="#fff"/><use xlink:href="#a" x="142.727" y="186.014" fill="#f00"/><path d="M119.074 168.22l-29.32 12.155M113.28 162.535l-23.452 9.723M123.207 136.75l-4.133 31.47M89.754 180.375L64.57 161.06M89.754 180.375l-2.067 15.734" stroke-width="1.2" stroke="#000" stroke-miterlimit="10" fill="none"/><path d="M87.688 196.11l-2.067 15.73" stroke-width="1.2" stroke="#f00" stroke-miterlimit="10" fill="none"/><path d="M64.57 161.06l4.133-31.47M72.387 158.887l3.308-25.176M64.57 161.06l-14.66 6.077" stroke-width="1.2" stroke="#000" stroke-miterlimit="10" fill="none"/><path d="M49.91 167.137l-14.66 6.074" stroke-width="1.2" stroke="#f00" stroke-miterlimit="10" fill="none"/><path d="M68.703 129.59l29.32-12.153M68.703 129.59l-12.594-9.656" stroke-width="1.2" stroke="#000" stroke-miterlimit="10" fill="none"/><path d="M56.11 119.934l-12.59-9.657" stroke-width="1.2" stroke="#f00" stroke-miterlimit="10" fill="none"/><path d="M98.023 117.438l25.184 19.312M95.996 125.293l20.15 15.453" stroke-width="1.2" stroke="#000" stroke-miterlimit="10" fill="none"/><path d="M24.52 103.277h19v14h-19zm0 0" fill="#fff"/><g fill="#f00"><use xlink:href="#b" x="24.52" y="114.416"/><use xlink:href="#a" x="33.543" y="114.416"/></g><path d="M16.25 166.21h19v14h-19zm0 0" fill="#fff"/><g fill="#f00"><use xlink:href="#b" x="16.25" y="177.35"/><use xlink:href="#a" x="25.273" y="177.35"/></g><path d="M85.62 211.84l-14.66 6.078" stroke-width="1.2" stroke="#f00" stroke-miterlimit="10" fill="none"/><path d="M70.96 217.918l-14.66 6.078" stroke-width="1.2" stroke="#000" stroke-miterlimit="10" fill="none"/><path d="M80.62 204.84h10v14h-10zm0 0" fill="#fff"/><use xlink:href="#a" x="80.621" y="215.979" fill="#f00"/></g></svg>
